assets/images/elements/send.svg

<!DOCTYPE svg PUBLIC "-//W3C//DTD SVG 1.1//EN" "http://www.w3.org/Graphics/SVG/1.1/DTD/svg11.dtd">
<!-- Uploaded to: SVG Repo, www.svgrepo.com, Transformed by: SVG Repo Mixer Tools -->
<svg width="800px" height="800px" viewBox="0 0 24 24" fill="none" xmlns="http://www.w3.org/2000/svg" stroke="#fff">
<g id="SVGRepo_bgCarrier" stroke-width="0"/>
<g id="SVGRepo_tracerCarrier" stroke-linecap="round" stroke-linejoin="round"/>
<g id="SVGRepo_iconCarrier"> <path d="M11.5003 12H5.41872M5.24634 12.7972L4.24158 15.7986C3.69128 17.4424 3.41613 18.2643 3.61359 18.7704C3.78506 19.21 4.15335 19.5432 4.6078 19.6701C5.13111 19.8161 5.92151 19.4604 7.50231 18.7491L17.6367 14.1886C19.1797 13.4942 19.9512 13.1471 20.1896 12.6648C20.3968 12.2458 20.3968 11.7541 20.1896 11.3351C19.9512 10.8529 19.1797 10.5057 17.6367 9.81135L7.48483 5.24303C5.90879 4.53382 5.12078 4.17921 4.59799 4.32468C4.14397 4.45101 3.77572 4.78336 3.60365 5.22209C3.40551 5.72728 3.67772 6.54741 4.22215 8.18767L5.24829 11.2793C5.34179 11.561 5.38855 11.7019 5.407 11.8459C5.42338 11.9738 5.42321 12.1032 5.40651 12.231C5.38768 12.375 5.34057 12.5157 5.24634 12.7972Z" stroke="#fff" stroke-width="2" stroke-linecap="round" stroke-linejoin="round"/> </g>
</svg>

<svg xmlns="http://www.w3.org/2000/svg" width="800" height="800" fill="none" stroke="#fff" viewBox="0 0 24 24"><path stroke-linecap="round" stroke-linejoin="round" stroke-width="2" d="M11.5 12H5.42m-.173.797L4.242 15.8c-.55 1.643-.826 2.465-.628 2.971.171.44.54.773.994.9.523.146 1.314-.21 2.894-.92l10.135-4.561c1.543-.695 2.314-1.042 2.553-1.524a1.5 1.5 0 0 0 0-1.33c-.239-.482-1.01-.83-2.553-1.524L7.485 5.243c-1.576-.71-2.364-1.064-2.887-.918a1.5 1.5 0 0 0-.994.897c-.198.505.074 1.325.618 2.966l1.026 3.091c.094.282.14.423.159.567a1.5 1.5 0 0 1 0 .385c-.02.144-.066.285-.16.566"/></svg>
